X:802
T:Pretty Peggy
R:Reel
B:The Athole Collection
M:C|
L:1/8
K:D
A|d2fd AFDA|d2fd e/f/g fe|d2fd AFDF|GEFD CEE:|
A|F/E/D AD BDAD|G/F/D G/F/D CEEG|G/F/D AD BDAD|
GFED A,DDA|G/F/D dD cDBD|AD G/F/D CEEG|FAdf ecdB|
BFGE FDD||

